public/lightlinkedin.svg

<svg fill="none" height="75" viewBox="0 0 75 75" width="75" xmlns="http://www.w3.org/2000/svg"><path d="m59.375 9.375c1.6576 0 3.2473.6585 4.4194 1.8306s1.8306 2.7618 1.8306 4.4194v43.75c0 1.6576-.6585 3.2473-1.8306 4.4194s-2.7618 1.8306-4.4194 1.8306h-43.75c-1.6576 0-3.2473-.6585-4.4194-1.8306s-1.8306-2.7618-1.8306-4.4194v-43.75c0-1.6576.6585-3.2473 1.8306-4.4194s2.7618-1.8306 4.4194-1.8306zm-1.5625 48.4375v-16.5625c0-2.7019-1.0733-5.2931-2.9838-7.2037-1.9106-1.9105-4.5018-2.9838-7.2037-2.9838-2.6562 0-5.75 1.625-7.25 4.0625v-3.4688h-8.7188v26.1563h8.7188v-15.4063c0-2.4062 1.9375-4.375 4.3438-4.375 1.1603 0 2.2731.461 3.0935 1.2815.8205.8204 1.2815 1.9332 1.2815 3.0935v15.4063zm-36.3125-31.0625c1.3924 0 2.7277-.5531 3.7123-1.5377s1.5377-2.3199 1.5377-3.7123c0-2.9062-2.3438-5.2812-5.25-5.2812-1.4007 0-2.744.5564-3.7344 1.5468s-1.5468 2.3337-1.5468 3.7344c0 2.9062 2.375 5.25 5.2812 5.25zm4.3438 31.0625v-26.1563h-8.6563v26.1563z" fill="#d1d5db"/></svg>

<svg width="75" height="75" viewBox="0 0 75 75" fill="none" xmlns="http://www.w3.org/2000/svg">
<path d="M59.375 9.375C61.0326 9.375 62.6223 10.0335 63.7944 11.2056C64.9665 12.3777 65.625 13.9674 65.625 15.625V59.375C65.625 61.0326 64.9665 62.6223 63.7944 63.7944C62.6223 64.9665 61.0326 65.625 59.375 65.625H15.625C13.9674 65.625 12.3777 64.9665 11.2056 63.7944C10.0335 62.6223 9.375 61.0326 9.375 59.375V15.625C9.375 13.9674 10.0335 12.3777 11.2056 11.2056C12.3777 10.0335 13.9674 9.375 15.625 9.375H59.375ZM57.8125 57.8125V41.25C57.8125 38.5481 56.7392 35.9569 54.8287 34.0463C52.9181 32.1358 50.3269 31.0625 47.625 31.0625C44.9688 31.0625 41.875 32.6875 40.375 35.125V31.6562H31.6562V57.8125H40.375V42.4062C40.375 40 42.3125 38.0312 44.7188 38.0312C45.8791 38.0312 46.9919 38.4922 47.8123 39.3127C48.6328 40.1331 49.0938 41.2459 49.0938 42.4062V57.8125H57.8125ZM21.5 26.75C22.8924 26.75 24.2277 26.1969 25.2123 25.2123C26.1969 24.2277 26.75 22.8924 26.75 21.5C26.75 18.5938 24.4062 16.2188 21.5 16.2188C20.0993 16.2188 18.756 16.7752 17.7656 17.7656C16.7752 18.756 16.2188 20.0993 16.2188 21.5C16.2188 24.4062 18.5938 26.75 21.5 26.75ZM25.8438 57.8125V31.6562H17.1875V57.8125H25.8438Z" fill="#D1D5DB"/>
</svg>
